src/svg/bookmark.svg

<svg height="16" width="10" xmlns="http://www.w3.org/2000/svg" viewBox="0 0 10 16">
  <path d="M9 0H1C0.27 0 0 0.27 0 1v15l5-3.09 5 3.09V1c0-0.73-0.27-1-1-1z m-0.78 4.25l-1.86 1.36 0.72 2.16c0.06 0.22-0.02 0.28-0.2 0.17l-1.88-1.34-1.88 1.34c-0.19 0.11-0.25 0.05-0.2-0.17l0.72-2.16-1.86-1.36c-0.17-0.16-0.14-0.23 0.09-0.23l2.3-0.03 0.7-2.16h0.25l0.7 2.16 2.3 0.03c0.23 0 0.27 0.08 0.09 0.23z" />
</svg>

<?xml version="1.0" encoding="UTF-8" standalone="no"?>
<svg width="10px" height="16px" viewBox="0 0 10 16" version="1.1" xmlns="http://www.w3.org/2000/svg" xmlns:xlink="http://www.w3.org/1999/xlink">
    <!-- Generator: Sketch 3.7.1 (28215) - http://www.bohemiancoding.com/sketch -->
    <title>bookmark</title>
    <desc>Created with Sketch.</desc>
    <defs></defs>
    <g id="Octicons" stroke="none" stroke-width="1" fill="none" fill-rule="evenodd">
        <g id="bookmark" fill="#000000">
            <path d="M9,0 L1,0 C0.27,0 0,0.27 0,1 L0,16 L5,12.91 L10,16 L10,1 C10,0.27 9.73,0 9,0 L9,0 Z M8.22,4.25 L6.36,5.61 L7.08,7.77 C7.14,7.99 7.06,8.05 6.88,7.94 L5,6.6 L3.12,7.94 C2.93,8.05 2.87,7.99 2.92,7.77 L3.64,5.61 L1.78,4.25 C1.61,4.09 1.64,4.02 1.87,4.02 L4.17,3.99 L4.87,1.83 L5.12,1.83 L5.82,3.99 L8.12,4.02 C8.35,4.02 8.39,4.1 8.21,4.25 L8.22,4.25 Z" id="Shape"></path>
        </g>
    </g>
</svg>
